svg/pin_off.svg

<svg xmlns="http://www.w3.org/2000/svg" viewBox="0 0 24 24"><path d="M2 5.27 3.28 4 20 20.72 18.73 22l-5.93-5.93V22h-1.6v-6H6v-2l2-2v-.73zM16 12l2 2v2h-.18L8 6.18V4H7V2h10v2h-1z"/></svg>

<?xml version="1.0" encoding="UTF-8"?><!DOCTYPE svg PUBLIC "-//W3C//DTD SVG 1.1//EN" "http://www.w3.org/Graphics/SVG/1.1/DTD/svg11.dtd"><svg xmlns="http://www.w3.org/2000/svg" xmlns:xlink="http://www.w3.org/1999/xlink" version="1.1" id="mdi-pin-off" width="24" height="24" viewBox="0 0 24 24"><path d="M2,5.27L3.28,4L20,20.72L18.73,22L12.8,16.07V22H11.2V16H6V14L8,12V11.27L2,5.27M16,12L18,14V16H17.82L8,6.18V4H7V2H17V4H16V12Z" /></svg>
